assets/icons/document/history.svg

<?xml version="1.0" encoding="UTF-8" standalone="no"?>
<svg viewBox="0 0 24 24" height="24" id="svg7384" version="1.1" width="24" sodipodi:docname="history.svg" inkscape:version="1.1.2 (76b9e6a115, 2022-02-25)"
   xmlns:inkscape="http://www.inkscape.org/namespaces/inkscape"
   xmlns:sodipodi="http://sodipodi.sourceforge.net/DTD/sodipodi-0.dtd"
   xmlns="http://www.w3.org/2000/svg"
   xmlns:svg="http://www.w3.org/2000/svg"
   xmlns:rdf="http://www.w3.org/1999/02/22-rdf-syntax-ns#"
   xmlns:cc="http://creativecommons.org/ns#"
   xmlns:dc="http://purl.org/dc/elements/1.1/">
   <sodipodi:namedview id="namedview21" pagecolor="#ffffff" bordercolor="#666666" borderopacity="1.0" inkscape:pageshadow="2" inkscape:pageopacity="0.0" inkscape:pagecheckerboard="0" showgrid="false" width="24px" inkscape:zoom="32" inkscape:cx="25.890625" inkscape:cy="8.25" inkscape:window-width="1920" inkscape:window-height="1043" inkscape:window-x="1920" inkscape:window-y="0" inkscape:window-maximized="1" inkscape:current-layer="svg7384">
      <inkscape:grid type="xygrid" id="grid837" dotted="false" />
      <inkscape:grid type="xygrid" id="grid839" dotted="true" spacingx="0.5" spacingy="0.5" empspacing="10" />
   </sodipodi:namedview>
   <metadata id="metadata20854">
      <rdf:RDF>
         <cc:Work rdf:about="">
            <dc:format>image/svg+xml</dc:format>
            <dc:type rdf:resource="http://purl.org/dc/dcmitype/StillImage" />
         </cc:Work>
      </rdf:RDF>
   </metadata>
   <defs id="defs7386">
      <linearGradient id="linearGradient5606" inkscape:swatch="solid">
         <stop id="stop5608" offset="0" style="stop-color:#000000;stop-opacity:1;" />
      </linearGradient>
      <linearGradient id="linearGradient4526" inkscape:swatch="solid">
         <stop id="stop4528" offset="0" style="stop-color:#ffffff;stop-opacity:1;" />
      </linearGradient>
      <linearGradient id="linearGradient3600-4" inkscape:swatch="gradient">
         <stop id="stop3602-7" offset="0" style="stop-color:#f4f4f4;stop-opacity:1" />
         <stop id="stop3604-6" offset="1" style="stop-color:#dbdbdb;stop-opacity:1" />
      </linearGradient>
   </defs>
   <path id="path874" style="color:#000000;fill:#808080;fill-opacity:1;-inkscape-stroke:none" d="M 6.4550781 2 C 5.4864972 2.00898 4.7372591 2.073269 4.1171875 2.4453125 C 3.7038064 2.6933412 3.3972496 3.10122 3.2285156 3.6074219 C 3.0597817 4.1136238 3 4.722223 3 5.5 L 3 15.5 C 3 16.277777 3.058558 16.891309 3.25 17.408203 C 3.4414421 17.925097 3.8029634 18.335075 4.2773438 18.572266 C 5.2261045 19.046646 6.5006596 18.948718 8.5 19 L 10 19 L 10 18 L 8.5 18 C 6.500002 18 5.2738943 17.95335 4.7226562 17.677734 C 4.4470374 17.539925 4.3085576 17.387402 4.1875 17.060547 C 4.0664424 16.733691 4 16.222221 4 15.5 L 4 5.5 C 4 4.7777785 4.065219 4.2613754 4.1777344 3.9238281 C 4.2902501 3.5862809 4.4211942 3.4316585 4.6328125 3.3046875 C 5.056049 3.0507456 6.0000015 3 7.5 3 L 12 3 L 12 8 L 17 8 L 17 10 L 18 10 L 18 7.2929688 L 12.707031 2 L 7.5 2 C 7.1250004 2 6.7779384 1.99701 6.4550781 2 z M 6 9 L 6 10 L 11.5 10 L 11.5 9 L 6 9 z M 6 11 L 6 12 L 10.173828 12 C 10.305252 11.626498 10.50732 11.288564 10.765625 11 L 6 11 z M 6 13 L 6 14 L 10 14 L 10 13 L 6 13 z M 6 15 L 6 16 L 10 16 L 10 15 L 6 15 z " />
   <path style="color:#000000;fill:#808080;stroke-linecap:square;-inkscape-stroke:none" d="m 16,13 v 0.5 3.707031 l 1.646484,1.646485 0.353516,0.353515 0.707031,-0.707031 -0.353515,-0.353516 -1.353516,-1.353515 v -3.292969 -0.5 z" id="path179" />
   <path id="path2" style="line-height:125%;-inkscape-font-specification:Ubuntu;text-align:center;fill:#808080;stroke-width:1" d="M 16.5 11 A 5.5 5.5 0 0 0 12.759766 12.486328 L 12.751953 12.478516 L 12 11.726562 C 11.827441 12.206454 11.668613 12.692191 11.525391 13.181641 C 11.383126 13.673341 11.254039 14.167775 11.136719 14.666016 C 11.627368 14.556005 12.122616 14.428417 12.625 14.283203 C 13.13105 14.134321 13.615106 13.974351 14.074219 13.802734 L 13.472656 13.199219 A 4.5 4.5 0 0 1 16.5 12 A 4.5 4.5 0 0 1 21 16.5 A 4.5 4.5 0 0 1 16.5 21 A 4.5 4.5 0 0 1 12.039062 17 L 11.037109 17 A 5.5 5.5 0 0 0 16.5 22 A 5.5 5.5 0 0 0 22 16.5 A 5.5 5.5 0 0 0 16.5 11 z " />
</svg>

<svg height="24" width="24" xmlns="http://www.w3.org/2000/svg"><path style="color:#000;fill:gray;fill-opacity:1;-inkscape-stroke:none" d="M6.455 2c-.969.009-1.718.073-2.338.445-.413.248-.72.656-.888 1.162C3.059 4.114 3 4.722 3 5.5v10c0 .778.059 1.391.25 1.908.191.517.553.927 1.027 1.164.95.475 2.224.377 4.223.428H10v-1H8.5c-2 0-3.226-.047-3.777-.322-.276-.138-.414-.29-.535-.617C4.066 16.734 4 16.222 4 15.5v-10c0-.722.065-1.239.178-1.576.112-.338.243-.492.455-.62C5.056 3.052 6 3 7.5 3H12v5h5v2h1V7.293L12.707 2H7.5c-.375 0-.722-.003-1.045 0zM6 9v1h5.5V9H6zm0 2v1h4.174a2.98 2.98 0 0 1 .592-1H6zm0 2v1h4v-1H6zm0 2v1h4v-1H6z"/><path style="color:#000;fill:gray;stroke-linecap:square;-inkscape-stroke:none" d="M16 13v4.207l1.646 1.647.354.353.707-.707-.353-.354L17 16.793V13z"/><path style="line-height:125%;-inkscape-font-specification:Ubuntu;text-align:center;fill:gray;stroke-width:1" d="M16.5 11a5.5 5.5 0 0 0-3.74 1.486l-.008-.007-.752-.752a25.313 25.313 0 0 0-.863 2.939c.49-.11.986-.238 1.488-.383.506-.149.99-.309 1.45-.48l-.602-.604A4.5 4.5 0 0 1 16.5 12a4.5 4.5 0 0 1 4.5 4.5 4.5 4.5 0 0 1-4.5 4.5 4.5 4.5 0 0 1-4.46-4h-1.003a5.5 5.5 0 0 0 5.463 5 5.5 5.5 0 0 0 5.5-5.5 5.5 5.5 0 0 0-5.5-5.5z"/></svg>
